X: 1
T: Manitoba, The
M: 3/4
L: 1/8
R: waltz
K: Emin
|:EG | {G} A3 G {A} B2 | AG {D} E2 EG | {G} A3 G {A} B2 | A G3 EG |
A3 G {B} B2 | AG E2 EG | D3 E EG | E D3 :|
[|Bd | e3 g gf | ed B2 Bd | e3 g gf | e d2 A Bd |
e3 g gf | ed B2 BA | G3 B AG | E D3 Bd |
e3 g gf | ed B2 Bd | b3 d b2 | a g3 gf |
e3 g gf | ed B2 BA | G3 B AG | ED3 |]
